img/warriorjs-sword.svg

<?xml version="1.0" encoding="UTF-8"?>
<svg width="198px" height="64px" viewBox="0 0 198 64" version="1.1" xmlns="http://www.w3.org/2000/svg" xmlns:xlink="http://www.w3.org/1999/xlink">
    <!-- Generator: Sketch 49 (51002) - http://www.bohemiancoding.com/sketch -->
    <title>warriorjs-icon-dark</title>
    <desc>Created with Sketch.</desc>
    <defs>
        <path d="M11,15 C14.5852031,15 17.3148054,16.4584946 19.1888889,19.3755274 C21.0629723,22.2925603 22,26.4927058 22,31.97609 C22,37.4913543 21.0629723,41.7074397 19.1888889,44.6244726 C17.3148054,47.5415054 14.5852031,49 11,49 C7.41479689,49 4.68519456,47.5415054 2.81111111,44.6244726 C0.937027667,41.7074397 0,37.4913543 0,31.97609 C0,26.4927058 0.937027667,22.2925603 2.81111111,19.3755274 C4.68519456,16.4584946 7.41479689,15 11,15 Z M11,19 C6.33331,19 4,23.3257538 4,31.9773913 C4,40.6591738 6.33331,45 11,45 C15.66669,45 18,40.6591738 18,31.9773913 C18,23.3257538 15.66669,19 11,19 Z" id="path-1"></path>
        <path d="M10.9770992,29 C11.8320653,29 12.5496154,29.2900734 13.129771,29.870229 C13.7099266,30.4503846 14,31.1526676 14,31.9770992 C14,32.8320653 13.7099266,33.5496154 13.129771,34.129771 C12.5496154,34.7099266 11.8320653,35 10.9770992,35 C10.1221331,35 9.41221656,34.7099266 8.84732824,34.129771 C8.28243992,33.5496154 8,32.8320653 8,31.9770992 C8,31.1526676 8.28243992,30.4503846 8.84732824,29.870229 C9.41221656,29.2900734 10.1221331,29 10.9770992,29 Z" id="path-2"></path>
        <polygon id="path-3" points="57 40 32 40 32 35 57 35"></polygon>
        <polygon id="path-4" points="57 29 32 29 32 24 57 24"></polygon>
        <path d="M89,4.41152263 C83.1596514,4.41152263 80.4151679,6.16733498 80.7664671,9.67901235 L82.0838323,23.1769547 C82.1277447,23.5720184 82.1497006,24.1426574 82.1497006,24.8888889 C82.1497006,26.9958953 81.6447156,28.6090479 80.6347305,29.7283951 C79.6247454,30.8477422 78.0658788,31.6049363 75.9580838,32 C78.1097912,32.3950637 79.6796358,33.1303101 80.6676647,34.2057613 C81.6556936,35.2812125 82.1497006,36.8943651 82.1497006,39.0452675 C82.1497006,39.7914989 82.1277447,40.3840856 82.0838323,40.8230453 L80.7664671,54.3209877 C80.5908175,56.2524102 81.2494935,57.6131648 82.742515,58.4032922 C84.2355364,59.1934196 86.3213439,59.5884774 89,59.5884774 L89,64 C85.0478844,64 81.8203718,63.3196227 79.3173653,61.9588477 C76.8143587,60.5980728 75.5628743,58.2935691 75.5628743,55.0452675 C75.5628743,54.4746199 75.5848301,54.0356668 75.6287425,53.7283951 L77.011976,41.218107 C77.0558884,40.9108352 77.0778443,40.4718821 77.0778443,39.9012346 C77.0778443,37.969812 76.3533007,36.5432145 74.9041916,35.6213992 C73.4550826,34.6995839 70.8203784,34.2386831 67,34.2386831 L67,29.7613169 C70.8203784,29.7613169 73.4550826,29.31139 74.9041916,28.4115226 C76.3533007,27.5116553 77.0778443,26.0960316 77.0778443,24.1646091 C77.0778443,23.6378574 77.0558884,23.220852 77.011976,22.9135802 L75.6287425,10.2716049 C75.5848301,9.96433317 75.5628743,9.52538008 75.5628743,8.95473251 C75.5628743,5.70643095 76.8143587,3.40192724 79.3173653,2.04115226 C81.8203718,0.680377284 85.0478844,0 89,0 L89,4.41152263 Z" id="path-5"></path>
        <path d="M94,42.9382716 C94,41.5802401 94.4761857,40.4177003 95.4285714,39.4506173 C96.3809571,38.4835343 97.5610696,38 98.9689441,38 C100.418227,38 101.619043,38.4835343 102.571429,39.4506173 C103.523814,40.4177003 104,41.5802401 104,42.9382716 C104,44.3374556 103.523814,45.5308593 102.571429,46.5185185 C101.619043,47.5061778 100.418227,48 98.9689441,48 C97.5610696,48 96.3809571,47.5061778 95.4285714,46.5185185 C94.4761857,45.5308593 94,44.3374556 94,42.9382716 Z" id="path-6"></path>
        <path d="M94,21 C94,19.6419685 94.4761857,18.4691407 95.4285714,17.4814815 C96.3809571,16.4938222 97.5610696,16 98.9689441,16 C100.418227,16 101.619043,16.4835343 102.571429,17.4506173 C103.523814,18.4177003 104,19.600816 104,21 C104,22.4403364 103.523814,23.6337401 102.571429,24.5802469 C101.619043,25.5267537 100.418227,26 98.9689441,26 C97.5610696,26 96.3809571,25.5267537 95.4285714,24.5802469 C94.4761857,23.6337401 94,22.4403364 94,21 Z" id="path-7"></path>
        <path d="M114,42.9382716 C114,41.5802401 114.476186,40.4177003 115.428571,39.4506173 C116.380957,38.4835343 117.56107,38 118.968944,38 C120.418227,38 121.619043,38.4835343 122.571429,39.4506173 C123.523814,40.4177003 124,41.5802401 124,42.9382716 C124,44.3374556 123.523814,45.5308593 122.571429,46.5185185 C121.619043,47.5061778 120.418227,48 118.968944,48 C117.56107,48 116.380957,47.5061778 115.428571,46.5185185 C114.476186,45.5308593 114,44.3374556 114,42.9382716 Z" id="path-8"></path>
        <path d="M114,21 C114,19.6419685 114.476186,18.4691407 115.428571,17.4814815 C116.380957,16.4938222 117.56107,16 118.968944,16 C120.418227,16 121.619043,16.4835343 122.571429,17.4506173 C123.523814,18.4177003 124,19.600816 124,21 C124,22.4403364 123.523814,23.6337401 122.571429,24.5802469 C121.619043,25.5267537 120.418227,26 118.968944,26 C117.56107,26 116.380957,25.5267537 115.428571,24.5802469 C114.476186,23.6337401 114,22.4403364 114,21 Z" id="path-9"></path>
        <path d="M134,42.9382716 C134,41.5802401 134.476186,40.4177003 135.428571,39.4506173 C136.380957,38.4835343 137.56107,38 138.968944,38 C140.418227,38 141.619043,38.4835343 142.571429,39.4506173 C143.523814,40.4177003 144,41.5802401 144,42.9382716 C144,44.3374556 143.523814,45.5308593 142.571429,46.5185185 C141.619043,47.5061778 140.418227,48 138.968944,48 C137.56107,48 136.380957,47.5061778 135.428571,46.5185185 C134.476186,45.5308593 134,44.3374556 134,42.9382716 Z" id="path-10"></path>
        <path d="M134,21 C134,19.6419685 134.476186,18.4691407 135.428571,17.4814815 C136.380957,16.4938222 137.56107,16 138.968944,16 C140.418227,16 141.619043,16.4835343 142.571429,17.4506173 C143.523814,18.4177003 144,19.600816 144,21 C144,22.4403364 143.523814,23.6337401 142.571429,24.5802469 C141.619043,25.5267537 140.418227,26 138.968944,26 C137.56107,26 136.380957,25.5267537 135.428571,24.5802469 C134.476186,23.6337401 134,22.4403364 134,21 Z" id="path-11"></path>
        <path d="M154,42.9382716 C154,41.5802401 154.476186,40.4177003 155.428571,39.4506173 C156.380957,38.4835343 157.56107,38 158.968944,38 C160.418227,38 161.619043,38.4835343 162.571429,39.4506173 C163.523814,40.4177003 164,41.5802401 164,42.9382716 C164,44.3374556 163.523814,45.5308593 162.571429,46.5185185 C161.619043,47.5061778 160.418227,48 158.968944,48 C157.56107,48 156.380957,47.5061778 155.428571,46.5185185 C154.476186,45.5308593 154,44.3374556 154,42.9382716 Z" id="path-12"></path>
        <path d="M154,21 C154,19.6419685 154.476186,18.4691407 155.428571,17.4814815 C156.380957,16.4938222 157.56107,16 158.968944,16 C160.418227,16 161.619043,16.4835343 162.571429,17.4506173 C163.523814,18.4177003 164,19.600816 164,21 C164,22.4403364 163.523814,23.6337401 162.571429,24.5802469 C161.619043,25.5267537 160.418227,26 158.968944,26 C157.56107,26 156.380957,25.5267537 155.428571,24.5802469 C154.476186,23.6337401 154,22.4403364 154,21 Z" id="path-13"></path>
        <polygon id="path-14" points="198 29.5757576 198 34.4812834 176.541176 48 174 44.4634581 193.934118 32.0285205 174 19.6506239 176.315294 16"></polygon>
    </defs>
    <g id="warriorjs-icon-dark" stroke="none" stroke-width="1" fill="none" fill-rule="evenodd">
        <g id="Sword-(Dark)">
            <g id="Combined-Shape">
                <use fill="#4D566A" xlink:href="#path-1"></use>
                <use fill="#8FBCBB" xlink:href="#path-1"></use>
            </g>
            <g id="Path">
                <use fill="#4D566A" xlink:href="#path-2"></use>
                <use fill="#8FBCBB" xlink:href="#path-2"></use>
            </g>
            <g id="Path">
                <use fill="#4D566A" xlink:href="#path-3"></use>
                <use fill="#8FBCBB" xlink:href="#path-3"></use>
            </g>
            <g id="Path">
                <use fill="#4D566A" xlink:href="#path-4"></use>
                <use fill="#8FBCBB" xlink:href="#path-4"></use>
            </g>
            <g id="Path">
                <use fill="#4D566A" xlink:href="#path-5"></use>
                <use fill="#8FBCBB" xlink:href="#path-5"></use>
            </g>
            <g id="Path">
                <use fill="#4D566A" xlink:href="#path-6"></use>
                <use fill="#8FBCBB" xlink:href="#path-6"></use>
            </g>
            <g id="Path">
                <use fill="#4D566A" xlink:href="#path-7"></use>
                <use fill="#8FBCBB" xlink:href="#path-7"></use>
            </g>
            <g id="Path">
                <use fill="#4D566A" xlink:href="#path-8"></use>
                <use fill="#8FBCBB" xlink:href="#path-8"></use>
            </g>
            <g id="Path">
                <use fill="#4D566A" xlink:href="#path-9"></use>
                <use fill="#8FBCBB" xlink:href="#path-9"></use>
            </g>
            <g id="Path">
                <use fill="#4D566A" xlink:href="#path-10"></use>
                <use fill="#8FBCBB" xlink:href="#path-10"></use>
            </g>
            <g id="Path">
                <use fill="#4D566A" xlink:href="#path-11"></use>
                <use fill="#8FBCBB" xlink:href="#path-11"></use>
            </g>
            <g id="Path">
                <use fill="#4D566A" xlink:href="#path-12"></use>
                <use fill="#8FBCBB" xlink:href="#path-12"></use>
            </g>
            <g id="Path">
                <use fill="#4D566A" xlink:href="#path-13"></use>
                <use fill="#8FBCBB" xlink:href="#path-13"></use>
            </g>
            <g id="Path">
                <use fill="#4D566A" xlink:href="#path-14"></use>
                <use fill="#8FBCBB" xlink:href="#path-14"></use>
            </g>
        </g>
    </g>
</svg>

<svg width="198" height="64" viewBox="0 0 198 64" xmlns="http://www.w3.org/2000/svg" xmlns:xlink="http://www.w3.org/1999/xlink"><defs><path d="M11 15c3.585 0 6.315 1.458 8.189 4.376C21.063 22.293 22 26.493 22 31.976c0 5.515-.937 9.731-2.811 12.648C17.315 47.542 14.585 49 11 49s-6.315-1.458-8.189-4.376C.937 41.707 0 37.491 0 31.976c0-5.483.937-9.683 2.811-12.6C4.685 16.458 7.415 15 11 15zm0 4c-4.667 0-7 4.326-7 12.977C4 40.66 6.333 45 11 45s7-4.34 7-13.023C18 23.326 15.667 19 11 19z" id="a"/><path d="M10.977 29c.855 0 1.573.29 2.153.87.58.58.87 1.283.87 2.107 0 .855-.29 1.573-.87 2.153-.58.58-1.298.87-2.153.87s-1.565-.29-2.13-.87C8.282 33.55 8 32.832 8 31.977c0-.824.282-1.527.847-2.107.565-.58 1.275-.87 2.13-.87z" id="b"/><path id="c" d="M57 40H32v-5h25z"/><path id="d" d="M57 29H32v-5h25z"/><path d="M89 4.412c-5.84 0-8.585 1.755-8.234 5.267l1.318 13.498c.044.395.066.966.066 1.712 0 2.107-.505 3.72-1.515 4.84-1.01 1.119-2.57 1.876-4.677 2.271 2.152.395 3.722 1.13 4.71 2.206.988 1.075 1.482 2.688 1.482 4.84 0 .745-.022 1.338-.066 1.777l-1.318 13.498c-.175 1.931.483 3.292 1.977 4.082 1.493.79 3.578 1.185 6.257 1.185V64c-3.952 0-7.18-.68-9.683-2.041-2.503-1.36-3.754-3.665-3.754-6.914 0-.57.022-1.01.066-1.317l1.383-12.51c.044-.307.066-.746.066-1.317 0-1.931-.725-3.358-2.174-4.28C73.455 34.7 70.82 34.24 67 34.24v-4.48c3.82 0 6.455-.45 7.904-1.35 1.45-.9 2.174-2.315 2.174-4.246 0-.527-.022-.944-.066-1.251l-1.383-12.642c-.044-.308-.066-.747-.066-1.317 0-3.249 1.251-5.553 3.754-6.914C81.82.681 85.047 0 89 0v4.412z" id="e"/><path d="M94 42.938c0-1.358.476-2.52 1.429-3.487.952-.967 2.132-1.451 3.54-1.451 1.45 0 2.65.484 3.602 1.45.953.968 1.429 2.13 1.429 3.488 0 1.4-.476 2.593-1.429 3.58-.952.988-2.153 1.482-3.602 1.482-1.408 0-2.588-.494-3.54-1.481-.953-.988-1.429-2.182-1.429-3.58z" id="f"/><path d="M94 21c0-1.358.476-2.53 1.429-3.519.952-.987 2.132-1.481 3.54-1.481 1.45 0 2.65.484 3.602 1.45.953.968 1.429 2.15 1.429 3.55 0 1.44-.476 2.634-1.429 3.58-.952.947-2.153 1.42-3.602 1.42-1.408 0-2.588-.473-3.54-1.42C94.476 23.634 94 22.44 94 21z" id="g"/><path d="M114 42.938c0-1.358.476-2.52 1.429-3.487.952-.967 2.132-1.451 3.54-1.451 1.45 0 2.65.484 3.602 1.45.953.968 1.429 2.13 1.429 3.488 0 1.4-.476 2.593-1.429 3.58-.952.988-2.153 1.482-3.602 1.482-1.408 0-2.588-.494-3.54-1.481-.953-.988-1.429-2.182-1.429-3.58z" id="h"/><path d="M114 21c0-1.358.476-2.53 1.429-3.519.952-.987 2.132-1.481 3.54-1.481 1.45 0 2.65.484 3.602 1.45.953.968 1.429 2.15 1.429 3.55 0 1.44-.476 2.634-1.429 3.58-.952.947-2.153 1.42-3.602 1.42-1.408 0-2.588-.473-3.54-1.42-.953-.946-1.429-2.14-1.429-3.58z" id="i"/><path d="M134 42.938c0-1.358.476-2.52 1.429-3.487.952-.967 2.132-1.451 3.54-1.451 1.45 0 2.65.484 3.602 1.45.953.968 1.429 2.13 1.429 3.488 0 1.4-.476 2.593-1.429 3.58-.952.988-2.153 1.482-3.602 1.482-1.408 0-2.588-.494-3.54-1.481-.953-.988-1.429-2.182-1.429-3.58z" id="j"/><path d="M134 21c0-1.358.476-2.53 1.429-3.519.952-.987 2.132-1.481 3.54-1.481 1.45 0 2.65.484 3.602 1.45.953.968 1.429 2.15 1.429 3.55 0 1.44-.476 2.634-1.429 3.58-.952.947-2.153 1.42-3.602 1.42-1.408 0-2.588-.473-3.54-1.42-.953-.946-1.429-2.14-1.429-3.58z" id="k"/><path d="M154 42.938c0-1.358.476-2.52 1.429-3.487.952-.967 2.132-1.451 3.54-1.451 1.45 0 2.65.484 3.602 1.45.953.968 1.429 2.13 1.429 3.488 0 1.4-.476 2.593-1.429 3.58-.952.988-2.153 1.482-3.602 1.482-1.408 0-2.588-.494-3.54-1.481-.953-.988-1.429-2.182-1.429-3.58z" id="l"/><path d="M154 21c0-1.358.476-2.53 1.429-3.519.952-.987 2.132-1.481 3.54-1.481 1.45 0 2.65.484 3.602 1.45.953.968 1.429 2.15 1.429 3.55 0 1.44-.476 2.634-1.429 3.58-.952.947-2.153 1.42-3.602 1.42-1.408 0-2.588-.473-3.54-1.42-.953-.946-1.429-2.14-1.429-3.58z" id="m"/><path id="n" d="M198 29.576v4.905L176.541 48 174 44.463l19.934-12.434L174 19.65l2.315-3.65z"/></defs><g fill="none" fill-rule="evenodd"><use fill="#4D566A" xlink:href="#a"/><use fill="#8FBCBB" xlink:href="#a"/><use fill="#4D566A" xlink:href="#b"/><use fill="#8FBCBB" xlink:href="#b"/><use fill="#4D566A" xlink:href="#c"/><use fill="#8FBCBB" xlink:href="#c"/><use fill="#4D566A" xlink:href="#d"/><use fill="#8FBCBB" xlink:href="#d"/><use fill="#4D566A" xlink:href="#e"/><use fill="#8FBCBB" xlink:href="#e"/><use fill="#4D566A" xlink:href="#f"/><use fill="#8FBCBB" xlink:href="#f"/><use fill="#4D566A" xlink:href="#g"/><use fill="#8FBCBB" xlink:href="#g"/><use fill="#4D566A" xlink:href="#h"/><use fill="#8FBCBB" xlink:href="#h"/><use fill="#4D566A" xlink:href="#i"/><use fill="#8FBCBB" xlink:href="#i"/><use fill="#4D566A" xlink:href="#j"/><use fill="#8FBCBB" xlink:href="#j"/><use fill="#4D566A" xlink:href="#k"/><use fill="#8FBCBB" xlink:href="#k"/><use fill="#4D566A" xlink:href="#l"/><use fill="#8FBCBB" xlink:href="#l"/><use fill="#4D566A" xlink:href="#m"/><use fill="#8FBCBB" xlink:href="#m"/><use fill="#4D566A" xlink:href="#n"/><use fill="#8FBCBB" xlink:href="#n"/></g></svg>
